X: 2
T: Gan Ainm
M: 3/4
L: 1/8
R: waltz / mazurka
K: Gmaj
|: G (3ABc |\ 
d2 d>^c d>e | (3ded g>f e>d | B2 B>^A B>c | (3BcB G>B D>B | 
A2 A>^G A>B | (3cdc A>D F>D |[1 G3 F G>E | D3 :|[2 G3 B d>B | G3 ||
|: G (3Bcd |\ 
e2 e>^d e>f | g2 (3fgf e2 | d2 g<d B<d | G3 D (3GAB | 
A2 A^G A>B | (3cdc (3ABA (3FED |[1 G3 F G>E | D3 :|[2 G3 B d>B | G3 |]
